packages/tokens/icons/b2B/size64Px.svg

<svg viewBox="0 0 64 64" fill="none" xmlns="http://www.w3.org/2000/svg" width="1em" height="1em"><path d="M15 25C15 24.7239 15.2239 24.5 15.5 24.5H21.5C21.7761 24.5 22 24.7239 22 25V34.5H15V25Z" stroke="currentColor"/><path d="M9.5 5.5L27.5 5.5C27.7761 5.5 28 5.72386 28 6V34C28 34.2761 27.7761 34.5 27.5 34.5H9.5C9.22386 34.5 9 34.2761 9 34L9 6C9 5.72386 9.22386 5.5 9.5 5.5Z" stroke="currentColor"/><path d="M9.5 10.5H6C5.44772 10.5 5 10.9477 5 11.5L5 33C5 33.5523 5.44772 34 6 34H9.5" stroke="currentColor"/><line x1="14" y1="10.5" x2="24" y2="10.5" stroke="currentColor" stroke-linecap="round"/><line x1="14" y1="15.5" x2="24" y2="15.5" stroke="currentColor" stroke-linecap="round"/><line x1="14" y1="20.5" x2="24" y2="20.5" stroke="currentColor" stroke-linecap="round"/><path d="M46.5 51C46.5 50.7239 46.7239 50.5 47 50.5H53C53.2761 50.5 53.5 50.7239 53.5 51V60.5H46.5V51Z" stroke="currentColor"/><path d="M41 31.5H59C59.2761 31.5 59.5 31.7239 59.5 32V60C59.5 60.2761 59.2761 60.5 59 60.5H41C40.7239 60.5 40.5 60.2761 40.5 60V32C40.5 31.7239 40.7239 31.5 41 31.5Z" stroke="currentColor"/><path d="M41 36.5H37.5C36.9477 36.5 36.5 36.9477 36.5 37.5L36.5 59C36.5 59.5523 36.9477 60 37.5 60H41" stroke="currentColor"/><line x1="45.5" y1="36.5" x2="55.5" y2="36.5" stroke="currentColor" stroke-linecap="round"/><line x1="45.5" y1="41.5" x2="55.5" y2="41.5" stroke="currentColor" stroke-linecap="round"/><line x1="45.5" y1="46.5" x2="55.5" y2="46.5" stroke="currentColor" stroke-linecap="round"/><path d="M37.5273 16.5L54.5 16.5L54.5 25.3636" stroke="currentColor" stroke-linecap="round" stroke-linejoin="round"/><path d="M41.5 20.5L37.4272 16.4273L41.5 12.3545" stroke="currentColor" stroke-linecap="round" stroke-linejoin="round"/><path d="M30.4728 49.3636L13.5 49.3636L13.5 40.5" stroke="currentColor" stroke-linecap="round" stroke-linejoin="round"/><path d="M26.5001 45.3636L30.5728 49.4364L26.5001 53.5091" stroke="currentColor" stroke-linecap="round" stroke-linejoin="round"/></svg>

<svg xmlns="http://www.w3.org/2000/svg" fill="none" viewBox="0 0 64 64" width="1em" height="1em"><path stroke="currentColor" d="M15 25a.5.5 0 0 1 .5-.5h6a.5.5 0 0 1 .5.5v9.5h-7V25Z"/><path stroke="currentColor" d="M9.5 5.5h18a.5.5 0 0 1 .5.5v28a.5.5 0 0 1-.5.5h-18A.5.5 0 0 1 9 34V6a.5.5 0 0 1 .5-.5Z"/><path stroke="currentColor" d="M9.5 10.5H6a1 1 0 0 0-1 1V33a1 1 0 0 0 1 1h3.5"/><path stroke="currentColor" stroke-linecap="round" d="M14 10.5h10m-10 5h10m-10 5h10"/><path stroke="currentColor" d="M46.5 51a.5.5 0 0 1 .5-.5h6a.5.5 0 0 1 .5.5v9.5h-7V51Z"/><path stroke="currentColor" d="M41 31.5h18a.5.5 0 0 1 .5.5v28a.5.5 0 0 1-.5.5H41a.5.5 0 0 1-.5-.5V32a.5.5 0 0 1 .5-.5Z"/><path stroke="currentColor" d="M41 36.5h-3.5a1 1 0 0 0-1 1V59a1 1 0 0 0 1 1H41"/><path stroke="currentColor" stroke-linecap="round" d="M45.5 36.5h10m-10 5h10m-10 5h10"/><path stroke="currentColor" stroke-linecap="round" stroke-linejoin="round" d="M37.527 16.5H54.5v8.864"/><path stroke="currentColor" stroke-linecap="round" stroke-linejoin="round" d="m41.5 20.5-4.073-4.073 4.073-4.072M30.473 49.364H13.5V40.5"/><path stroke="currentColor" stroke-linecap="round" stroke-linejoin="round" d="m26.5 45.364 4.073 4.072L26.5 53.51"/></svg>
